X: 926
T: Alistríona's Whistle
R: jig
M: 6/8
K: Eminor
|:c|BEE GEB|EGE edB|ADD FDA|DFD ged|
BEE GEB|G2 G g2 g|fdA dfd|ged e2:|
|:f|geB GEG|Beg bag|fAd FAD|FAd fef|
geB GEG|Beg bag|fdA dfd|ged e2:|

